X:12
T:Trip to the Jubilee
M:2/4
L:1/8
B:Thompson's Compleat Collection of 200 Favourite Country Dances, vol. 1 (London, 1757)
Z:Transcribed and edited by Fynnian Titford-Mock, 2007
Z:abc's:AK/Fiddler's Companion
K:Bb
F|B>dc>B|f>dB>e|d>cB>A|Bfg_a|g>eE>g|f>dD>f|d>BA>B|(B c2):|
|:c|f>ed>c|=B>_AG>F|E>_ag>f|e>dc>d|e>dc>B|A>GF>E|D>ed>g|
f>AB>a|b>fd>B|g>ec>A|f>CA>c|B2 F2|G>BA>c|B>ed>c|d>BF>A|B3:|

